X: 647
T: Emel-i Meyl-i Vefâ
C: Şevki Bey
O: Turkey
F: http://compmusic.upf.edu/node/140
N: beyati--sarki--duyek--emel-i_meyl-i--sevki_bey
N: makam= beyati
N: form= sarki
N: usul= duyek = 8/4
M: 8/4
L: 1/16
K: C _2/4B   
Q: 1/4=180
%%MIDI tuningsystem comma53
G^3/4F E2 F2 G2 A2 B2 c2 d2  | c3/2B/ Ac B3/2A/ GB A3A2c de  | 
w:  ARANAĞME  |   | 
f2 ef ef ed d2 cd ef ed  | d6 de cB AG d4  | 
w:   |   | 
z4 c2 d2 e2 fg e2 d2  | c3B A2 B2 d2 c4 B2  | \
w:   |   | 
e3d d3/2e/ dc c6 B2  | 
w:   | 
B3A A3/2c/ BA A3A2A A2  | G^3/4F E2 F2 G2 A2 B2 c2 d2  | \
w:   |  ARANAĞME  | 
c3/2B/ Ac B3/2A/ GB A3A2c de  | 
w:   | 
f2 ef ef ed d2 cd ef ed  | d6 de cB AG d4  | 
w:   |   | 
z4 c2 d2 e2 fg e2 d2  | c3B A2 B2 d2 c4 B2  | \
w:   |   | 
e3d d3/2e/ dc c6 B2  | 
w:   | 
B3A A3/2c/ BA A4 GA Bc  | Bc d2 B2 c2 d4 d4  | \
w:   |  *  *  *  E mel_ i  meyl_  | 
d2 {e}dc d2 e2 {e}d2 c2 B2 A2  | 
w:  i  *  *  *  *  ve *  fâ   | 
A3G e2 ed d3e dc BA  | {B}A3G e2 ed d3f dc BA  | 
w:  sen *  de  de  *  var  SAZ  |  *  ben *  de  de  *  var   SAZ  | 
Bc d2 B2 c2 d4 d4  | d2 {e}dc d2 e2 {e}d2 c2 B2 A2  | \
w:  *  *  *  E mel_ i  meyl_  |  i  *  *  *  *  ve *  fâ   | 
A3G e2 ed d3e dc BA  | 
w:  sen *  de  de  *  var  SAZ  | 
{B}A3G e2 ed d3f dc BA  | Bc d2 c2 d2 e2 fg e2 d2  | 
w:  *  ben *  de  de  *  var   SAZ  |  *  *  *  He ves_ i   | 
c3B A2 B2 c2 d2 c2 B2  | A2 B2 c2 cB {c}B4 B2 A2  | \
w:  i  *  şu  sa fâ   |  sen *  de  de  *  *  var  SAZ  | 
A2 B2 c2 cB {c}B4 zc Bd  | 
w:  ben *  de  de  *  *  var   SAZ  | 
cB AG ^3/4F2 G2 A2 B2 c2 d2  | {g}fe d2 c2 B2 A3B A2 G2  | \
w:  *  *  *  *  He ves_ i   |  *  i  *  *  şu  sa fâ   | 
e3d d2 dc c6 B2  | 
w:  sen *  de  de  *  var   | 
B3A A2 {c}BA A4 de ^3/4fa  | g2 g2 ^3/4f2 a2 g2 ^1/4f2 e2 d2  | \
w:  ben *  de  *  de  *  var   SAZ  |  *  Zâ *  il_ ol *  maz   | 
d4 e2 ^3/4f2 g2 ^2/4f2 a2 gf  | 
w:  SAZ dil_ i  â  | 
e3d d2 {f}ed d4 dc BA  | A3G e2 ed d4 de ^3/4fa  | \
w:  şüf *  te *  mi *  zin  SAZ  |  sev *  da *  *  sı  SAZ  | 
g2 g2 ^3/4f2 a2 g2 ^1/4f2 e2 d2  | 
w:  *  Zâ *  il_ ol *  maz   | 
d4 e2 ^3/4f2 g2 ^2/4f2 a2 gf  | e3d d2 {f}ed d4 dc BA  | \
w:  SAZ dil_ i  â  |  şüf *  te *  mi *  zin  SAZ  | 
A3G e2 ed d4 dc BA  | 
w:  sev *  da *  *  sı  SAZ  | 
Bc d2 c2 d2 e2 fg e2 d2  | c3B A2 B2 c2 d2 c2 B2  | \
w:  *  *  *  He ves_ i   |  i  *  şu  sa fâ   | 
A2 B2 c2 cB {c}B4 B2 A2  | 
w:  sen *  de  de  *  *  var  SAZ  | 
A2 B2 c2 cB {c}B4 zc Bd  | cB AG ^3/4F2 G2 A2 B2 c2 d2  | \
w:  ben *  de  de  *  *  var   SAZ  |  *  *  *  *  He ves_ i   | 
{g}fe d2 c2 B2 A3B A2 G2  | 
w:  *  i  *  *  şu  sa fâ   | 
e3d d2 dc c6 B2  | B3A A2 {c}BA A4 |
w:  sen *  de  de  *  var   |  ben *  de  *  de  *  var    | 


